src/images/delivery.svg

<svg viewBox="0 0 93.65 6.69" xmlns="http://www.w3.org/2000/svg"><g fill="#fff"><path d="m0 .1a.09.09 0 0 1 .1-.1h2.09a2 2 0 0 1 2.14 1.36 5.94 5.94 0 0 1 .19 2 5.93 5.93 0 0 1 -.19 2 2 2 0 0 1 -2.14 1.33h-2.09a.09.09 0 0 1 -.1-.1zm.62 6.06h1.49a1.54 1.54 0 0 0 1.67-1 5.5 5.5 0 0 0 .16-1.8 5.5 5.5 0 0 0 -.16-1.8 1.54 1.54 0 0 0 -1.67-1h-1.49a.05.05 0 0 0 -.06.03v5.51s.02.06.06.06z"/><path d="m13.72.1a.09.09 0 0 1 .1-.1h3.82a.09.09 0 0 1 .1.1v.33a.09.09 0 0 1 -.1.1h-3.3a.05.05 0 0 0 -.06.06v2.41s0 .06.06.06h2.84a.09.09 0 0 1 .1.1v.33a.09.09 0 0 1 -.1.1h-2.84a.05.05 0 0 0 -.06.06v2.45s0 .06.06.06h3.3a.09.09 0 0 1 .1.1v.33a.09.09 0 0 1 -.1.1h-3.82a.09.09 0 0 1 -.1-.1z"/><path d="m26.79.1a.09.09 0 0 1 .1-.1h.36a.09.09 0 0 1 .1.1v6s0 .06.06.06h3.3a.09.09 0 0 1 .1.1v.33a.09.09 0 0 1 -.1.1h-3.82a.09.09 0 0 1 -.1-.1z"/><path d="m39.72.1a.09.09 0 0 1 .1-.1h.36a.09.09 0 0 1 .1.1v6.49a.09.09 0 0 1 -.1.1h-.36a.09.09 0 0 1 -.1-.1z"/><path d="m51.5 6.69c-.06 0-.09 0-.11-.1l-2.21-6.45c0-.09 0-.14.07-.14h.34c.09 0 .12 0 .15.1l1.94 5.65 1.91-5.65c0-.08.06-.1.14-.1h.35c.07 0 .11.05.08.14l-2.16 6.45a.13.13 0 0 1 -.12.1z"/><path d="m63.07.1a.09.09 0 0 1 .1-.1h3.83a.09.09 0 0 1 .1.1v.33a.09.09 0 0 1 -.1.1h-3.3a.05.05 0 0 0 -.06.06v2.41s0 .06.06.06h2.84a.09.09 0 0 1 .1.1v.33a.09.09 0 0 1 -.1.1h-2.85a.05.05 0 0 0 -.06.06v2.45s0 .06.06.06h3.31a.09.09 0 0 1 .1.1v.33a.09.09 0 0 1 -.1.1h-3.83a.09.09 0 0 1 -.1-.1z"/><path d="m80.1 6.69c-.06 0-.09 0-.12-.09l-1.4-2.9h-1.82a.05.05 0 0 0 -.06.06v2.83a.09.09 0 0 1 -.1.1h-.36a.09.09 0 0 1 -.1-.1v-6.49a.09.09 0 0 1 .1-.1h2.24a1.81 1.81 0 0 1 2 1.85 1.7 1.7 0 0 1 -1.37 1.77l1.45 3v.11zm-.1-4.84c0-.85-.58-1.32-1.53-1.32h-1.71a.05.05 0 0 0 -.06.06v2.52a.05.05 0 0 0 .06.06h1.71c.95 0 1.53-.48 1.53-1.32z"/><path d="m91.18 6.69a.09.09 0 0 1 -.1-.1v-2.65l-2-3.84a.08.08 0 0 1 .07-.1h.38c.08 0 .11 0 .15.1l1.68 3.19 1.64-3.19c0-.08.07-.1.15-.1h.37a.08.08 0 0 1 .08.11l-2 3.84v2.64a.09.09 0 0 1 -.1.1z"/></g></svg>

<svg xmlns="http://www.w3.org/2000/svg" viewBox="0 0 93.65 6.69"><defs><style>.cls-1{fill:#fff;}</style></defs><title>delivery</title><g id="Layer_2" data-name="Layer 2"><g id="Layer_1-2" data-name="Layer 1"><path class="cls-1" d="M0,.1A.09.09,0,0,1,.1,0H2.19A2,2,0,0,1,4.33,1.36a5.94,5.94,0,0,1,.19,2,5.93,5.93,0,0,1-.19,2A2,2,0,0,1,2.19,6.69H.1a.09.09,0,0,1-.1-.1ZM.62,6.16H2.11a1.54,1.54,0,0,0,1.67-1,5.5,5.5,0,0,0,.16-1.8,5.5,5.5,0,0,0-.16-1.8,1.54,1.54,0,0,0-1.67-1H.62A.05.05,0,0,0,.56.59V6.1S.58,6.16.62,6.16Z"/><path class="cls-1" d="M13.72.1a.09.09,0,0,1,.1-.1h3.82a.09.09,0,0,1,.1.1V.43a.09.09,0,0,1-.1.1h-3.3a.05.05,0,0,0-.06.06V3s0,.06.06.06h2.84a.09.09,0,0,1,.1.1v.33a.09.09,0,0,1-.1.1H14.34a.05.05,0,0,0-.06.06V6.1s0,.06.06.06h3.3a.09.09,0,0,1,.1.1v.33a.09.09,0,0,1-.1.1H13.82a.09.09,0,0,1-.1-.1Z"/><path class="cls-1" d="M26.79.1a.09.09,0,0,1,.1-.1h.36a.09.09,0,0,1,.1.1v6s0,.06.06.06h3.3a.09.09,0,0,1,.1.1v.33a.09.09,0,0,1-.1.1H26.89a.09.09,0,0,1-.1-.1Z"/><path class="cls-1" d="M39.72.1a.09.09,0,0,1,.1-.1h.36a.09.09,0,0,1,.1.1V6.59a.09.09,0,0,1-.1.1h-.36a.09.09,0,0,1-.1-.1Z"/><path class="cls-1" d="M51.5,6.69c-.06,0-.09,0-.11-.1L49.18.14c0-.09,0-.14.07-.14h.34c.09,0,.12,0,.15.1l1.94,5.65h0L53.59.1c0-.08.06-.1.14-.1h.35c.07,0,.11.05.08.14L52,6.59a.13.13,0,0,1-.12.1Z"/><path class="cls-1" d="M63.07.1a.09.09,0,0,1,.1-.1H67a.09.09,0,0,1,.1.1V.43a.09.09,0,0,1-.1.1h-3.3a.05.05,0,0,0-.06.06V3s0,.06.06.06h2.84a.09.09,0,0,1,.1.1v.33a.09.09,0,0,1-.1.1H63.69a.05.05,0,0,0-.06.06V6.1s0,.06.06.06H67a.09.09,0,0,1,.1.1v.33a.09.09,0,0,1-.1.1H63.17a.09.09,0,0,1-.1-.1Z"/><path class="cls-1" d="M80.1,6.69c-.06,0-.09,0-.12-.09l-1.4-2.9H76.76a.05.05,0,0,0-.06.06V6.59a.09.09,0,0,1-.1.1h-.36a.09.09,0,0,1-.1-.1V.1a.09.09,0,0,1,.1-.1h2.24a1.81,1.81,0,0,1,2,1.85,1.7,1.7,0,0,1-1.37,1.77l1.45,3c0,.06,0,.11,0,.11ZM80,1.85C80,1,79.42.53,78.47.53H76.76a.05.05,0,0,0-.06.06V3.11a.05.05,0,0,0,.06.06h1.71C79.42,3.17,80,2.69,80,1.85Z"/><path class="cls-1" d="M91.18,6.69a.09.09,0,0,1-.1-.1V3.94l-2-3.84A.08.08,0,0,1,89.15,0h.38c.08,0,.11,0,.15.1l1.68,3.19h0L93,.1c0-.08.07-.1.15-.1h.37a.08.08,0,0,1,.08.11l-2,3.84V6.59a.09.09,0,0,1-.1.1Z"/></g></g></svg>
